; generated by PrusaSlicer 2.4.2+win64 on 2023-01-15 at 08:04:17 UTC


;
;
; 

; external perimeters extrusion width = 0.45mm
; perimeters extrusion width = 0.45mm
; infill extrusion width = 0.45mm
; solid infill extrusion width = 0.45mm
; top infill extrusion width = 0.40mm
; support material extrusion width = 0.35mm
; first layer extrusion width = 0.42mm

M73 P0 R6
M73 Q0 S6
M201 X1000 Y1000 Z200 E5000 ; sets maximum accelerations, mm/sec^2
M203 X200 Y200 Z12 E120 ; sets maximum feedrates, mm / sec
M204 P1250 R1250 T1250 ; sets acceleration (P, T) and retract acceleration (R), mm/sec^2
M205 X8.00 Y8.00 Z0.40 E4.50 ; sets the jerk limits, mm/sec
M205 S0 T0 ; sets the minimum extruding and travel feed rate, mm/sec
M107
;TYPE:Custom
M862.3 P "MK3" ; printer model check
M862.1 P0.4 ; nozzle diameter check
M115 U3.11.0 ; tell printer latest fw version
G90 ; use absolute coordinates
M83 ; extruder relative mode
M104 S240 ; set extruder temp
M140 S85 ; set bed temp
M190 S85 ; wait for bed temp
M109 S240 ; wait for extruder temp
G28 W ; home all without mesh bed level
G80 ; mesh bed leveling
G1 Z0.2 F720
G1 Y-3 F1000 ; go outside print area
G92 E0
G1 X60 E9 F1000 ; intro line
G1 X100 E12.5 F1000 ; intro line
G92 E0
M221 S95

; Don't change E values below. Excessive value can damage the printer.
M907 E430 ; set extruder motor current
G21 ; set units to millimeters
G90 ; use absolute coordinates
M83 ; use relative distances for extrusion
M900 K0.08 ; Filament gcode LA 1.5
M900 K45 ; Filament gcode LA 1.0
M107
;LAYER_CHANGE
;Z:0.2
;HEIGHT:0.2
;BEFORE_LAYER_CHANGE
G92 E0.0
;0.2


G1 E-1 F2100
M73 P1 R6
M73 Q1 S6
G1 Z.2 F720
;AFTER_LAYER_CHANGE
;0.2
G1 Z.4
G1 X115.081 Y96.025 F10800
G1 Z.2 F720
G1 E1 F2100
M204 S800
;TYPE:Skirt/Brim
;WIDTH:0.42
G1 F1200
G1 X116.147 Y95.012 E.04612
G1 X117.442 Y94.688 E.04186
G1 X132.558 Y94.688 E.47393
G1 X133.975 Y95.081 E.04612
M73 Q2 S6
G1 X134.988 Y96.147 E.04612
M73 P2 R6
G1 X135.312 Y97.442 E.04186
G1 X135.312 Y112.558 E.47393
G1 X134.919 Y113.975 E.04612
G1 X133.853 Y114.988 E.04612
G1 X132.558 Y115.312 E.04186
G1 X117.442 Y115.312 E.47393
G1 X116.025 Y114.919 E.04612
G1 X115.012 Y113.853 E.04612
G1 X114.688 Y112.558 E.04186
G1 X114.688 Y97.442 E.47393
G1 X115.065 Y96.083 E.04424
M204 S1000
G1 X115.439 Y96.195 F10800
M204 S800
G1 F1200
G1 X115.457 Y96.135 E.00195
G1 X116.503 Y95.259 E.04278
G1 X117.442 Y95.065 E.03008
G1 X132.558 Y95.065 E.47393
G1 X133.865 Y95.457 E.04278
M73 Q3 S6
G1 X134.741 Y96.503 E.04278
G1 X134.935 Y97.442 E.03008
G1 X134.935 Y112.558 E.47393
G1 X134.543 Y113.865 E.04278
M73 P3 R6
G1 X133.497 Y114.741 E.04278
G1 X132.558 Y114.935 E.03008
G1 X117.442 Y114.935 E.47393
G1 X116.135 Y114.543 E.04278
G1 X115.259 Y113.497 E.04278
G1 X115.065 Y112.558 E.03008
G1 X115.065 Y97.442 E.47393
G1 X115.422 Y96.252 E.03895
M204 S1000
; printing object caster.STL id:0 copy 0
;WIPE_START
G1 F8640
G1 X115.457 Y96.135 E-.0282
G1 X116.503 Y95.259 E-.31505
G1 X117.442 Y95.065 E-.22155
G1 X119.111 Y95.065 E-.3852
;WIPE_END
G1 E-.05 F2100
G1 Z.4 F720
G1 X132.558 Y112.558 F10800
G1 Z.2 F720
G1 E1 F2100
M204 S800
;TYPE:Support material
G1 F1200
G1 X117.442 Y112.558 E.47393
G1 X117.442 Y97.442 E.47393
M73 Q4 S6
G1 X132.558 Y97.442 E.47393
M73 P4 R6
G1 X132.558 Y112.501 E.47215
M204 S1000
;WIPE_START
G1 F8640
G1 X132.558 Y108.387 E-.95
;WIPE_END
G1 E-.05 F2100
G1 Z.4 F720
G1 X124.979 Y102.92 F10800
G1 Z.2 F720
G1 E1 F2100
M204 S800
G1 F1200
G1 X124.618 Y102.955 E.01137
G1 X124.269 Y103.053 E.01137
G1 X123.978 Y103.188 E.01006
G1 X123.679 Y103.393 E.01137
G1 X123.42 Y103.647 E.01137
G1 X123.209 Y103.942 E.01137
G1 X123.053 Y104.269 E.01137
G1 X122.948 Y104.659 E.01268
G1 X122.92 Y105.021 E.01137
G1 X122.963 Y105.411 E.0123
G1 X123.053 Y105.731 E.01042
G1 X123.188 Y106.022 E.01006
G1 X123.393 Y106.321 E.01137
G1 X123.647 Y106.58 E.01137
G1 X123.942 Y106.791 E.01137
G1 X124.269 Y106.947 E.01137
G1 X124.618 Y107.045 E.01137
G1 X124.979 Y107.08 E.01137
G1 X125.382 Y107.045 E.01268
G1 X125.731 Y106.947 E.01137
G1 X126.058 Y106.791 E.01137
G1 X126.353 Y106.58 E.01137
G1 X126.607 Y106.321 E.01137
G1 X126.825 Y105.994 E.0123
G1 X126.962 Y105.692 E.01042
G1 X127.045 Y105.382 E.01006
G1 X127.08 Y105.021 E.01137
G1 X127.045 Y104.618 E.01268
G1 X126.947 Y104.269 E.01137
G1 X126.791 Y103.942 E.01137
G1 X126.58 Y103.647 E.01137
G1 X126.321 Y103.393 E.01137
G1 X126.022 Y103.188 E.01137
G1 X125.692 Y103.038 E.01137
G1 X125.382 Y102.955 E.01006
G1 X125.036 Y102.921 E.01091
M204 S1000
;WIPE_START
G1 F8640
G1 X125.382 Y102.955 E-.08034
G1 X125.692 Y103.038 E-.07409
G1 X126.022 Y103.188 E-.0837
G1 X126.321 Y103.393 E-.08374
G1 X126.58 Y103.647 E-.08371
G1 X126.791 Y103.942 E-.08372
G1 X126.947 Y104.269 E-.08372
G1 X127.045 Y104.618 E-.08372
G1 X127.08 Y105.021 E-.09336
G1 X127.045 Y105.382 E-.08372
G1 X126.962 Y105.692 E-.07408
G1 X126.887 Y105.858 E-.04209
;WIPE_END
G1 E-.05 F2100
G1 Z.4 F720
G1 X132.123 Y112.388 F10800
G1 Z.2 F720
G1 E1 F2100
M204 S800
M73 Q5 S6
G1 F1200
G1 X132.123 Y97.782 E.45797
G1 X131.704 Y97.782 E.01314
M73 P5 R6
G1 X131.704 Y112.218 E.45265
G1 X131.285 Y112.218 E.01314
G1 X131.285 Y97.782 E.45265
G1 X130.866 Y97.782 E.01314
G1 X130.866 Y112.218 E.45265
G1 X130.447 Y112.218 E.01314
G1 X130.447 Y97.782 E.45265
G1 X130.028 Y97.782 E.01314
G1 X130.028 Y112.218 E.45265
G1 X129.609 Y112.218 E.01314
M73 P6 R6
M73 Q6 S6
G1 X129.609 Y97.782 E.45265
G1 X129.19 Y97.782 E.01314
G1 X129.19 Y112.218 E.45265
G1 X128.771 Y112.218 E.01314
G1 X128.771 Y97.782 E.45265
G1 X128.352 Y97.782 E.01314
G1 X128.352 Y112.218 E.45265
G1 X127.933 Y112.218 E.01314
G1 X127.933 Y97.782 E.45265
G1 X127.514 Y97.782 E.01314
M73 P7 R6
M73 Q7 S6
G1 X127.514 Y112.218 E.45265
G1 X127.095 Y112.218 E.01314
G1 X127.095 Y106.21 E.18837
G1 X126.876 Y106.528 E.01208
G1 X126.676 Y106.737 E.00909
G1 X126.676 Y112.218 E.17186
G1 X126.257 Y112.218 E.01314
G1 X126.257 Y107.066 E.16155
G1 X125.838 Y107.27 E.01461
G1 X125.838 Y112.218 E.15516
G1 X125.419 Y112.218 E.01314
G1 X125.419 Y107.383 E.15161
G1 X125 Y107.419 E.01319
G1 X125 Y112.218 E.15047
G1 X124.581 Y112.218 E.01314
G1 X124.581 Y107.383 E.15161
G1 X124.162 Y107.27 E.01361
G1 X124.162 Y112.218 E.15516
G1 X123.743 Y112.218 E.01314
G1 X123.743 Y107.066 E.16155
G1 X123.472 Y106.876 E.01036
G1 X123.324 Y106.737 E.00638
G1 X123.324 Y112.218 E.17186
G1 X122.905 Y112.218 E.01314
G1 X122.905 Y106.21 E.18837
M73 Q8 S6
G1 X122.739 Y105.861 E.01213
M73 P8 R6
G1 X122.624 Y105.455 E.01322
G1 X122.581 Y104.964 E.01546
G1 X122.611 Y104.615 E.01099
G1 X122.714 Y104.206 E.01322
G1 X122.905 Y103.79 E.01436
G1 X122.905 Y97.782 E.18837
G1 X123.324 Y97.782 E.01314
G1 X123.324 Y103.263 E.17186
G1 X123.472 Y103.124 E.00638
G1 X123.743 Y102.934 E.01036
G1 X123.743 Y97.782 E.16155
G1 X124.162 Y97.782 E.01314
G1 X124.162 Y102.73 E.15516
G1 X124.581 Y102.617 E.01361
G1 X124.581 Y97.782 E.15161
G1 X125 Y97.782 E.01314
G1 X125 Y102.581 E.15047
G1 X125.419 Y102.617 E.01319
G1 X125.419 Y97.782 E.15161
G1 X125.838 Y97.782 E.01314
G1 X125.838 Y102.73 E.15516
G1 X126.257 Y102.934 E.01461
G1 X126.257 Y97.782 E.16155
G1 X126.676 Y97.782 E.01314
G1 X126.676 Y103.263 E.17186
G1 X126.876 Y103.472 E.00909
G1 X127.095 Y103.79 E.01208
G1 X127.095 Y97.612 E.1937
M204 S1000
;WIPE_START
G1 F8640
G1 X127.095 Y101.726 E-.95
;WIPE_END
G1 E-.05 F2100
G1 Z.4 F720
G1 X122.486 Y112.388 F10800
G1 Z.2 F720
M73 Q9 S6
G1 E1 F2100
M204 S800
G1 F1200
G1 X122.486 Y97.782 E.45797
G1 X122.067 Y97.782 E.01314
M73 P9 R6
G1 X122.067 Y112.218 E.45265
G1 X121.648 Y112.218 E.01314
G1 X121.648 Y97.782 E.45265
G1 X121.229 Y97.782 E.01314
G1 X121.229 Y112.218 E.45265
G1 X120.81 Y112.218 E.01314
G1 X120.81 Y97.782 E.45265
G1 X120.391 Y97.782 E.01314
G1 X120.391 Y112.218 E.45265
G1 X119.972 Y112.218 E.01314
M73 P10 R6
M73 Q10 S6
G1 X119.972 Y97.782 E.45265
G1 X119.553 Y97.782 E.01314
G1 X119.553 Y112.218 E.45265
G1 X119.134 Y112.218 E.01314
G1 X119.134 Y97.782 E.45265
G1 X118.715 Y97.782 E.01314
G1 X118.715 Y112.218 E.45265
G1 X118.296 Y112.218 E.01314
G1 X118.296 Y97.782 E.45265
G1 X117.877 Y97.782 E.01314
M73 P11 R6
M73 Q11 S6
G1 X117.877 Y112.388 E.45797
M204 S1000
;WIPE_START
G1 F8640
G1 X117.877 Y108.274 E-.95
;WIPE_END
G1 E-.05 F2100
G1 Z.4 F720
G1 X124.479 Y105.62 F10800
G1 Z.2 F720
M73 P11 R5
G1 E1 F2100
M204 S800
;TYPE:Perimeter
G1 F1200
G1 X124.299 Y105.405 E.00882
G1 X124.239 Y105.277 E.00443
G1 X124.19 Y105 E.00882
G1 X124.239 Y104.723 E.00882
G1 X124.38 Y104.479 E.00882
G1 X124.595 Y104.299 E.00882
G1 X124.723 Y104.239 E.00443
G1 X125 Y104.19 E.00882
G1 X125.277 Y104.239 E.00882
G1 X125.521 Y104.38 E.00882
G1 X125.701 Y104.595 E.00882
G1 X125.761 Y104.723 E.00443
G1 X125.81 Y105 E.00882
G1 X125.761 Y105.277 E.00882
G1 X125.62 Y105.521 E.00882
G1 X125.405 Y105.701 E.00882
G1 X125.141 Y105.798 E.00882
G1 X124.859 Y105.798 E.00882
G1 X124.723 Y105.761 E.00443
G1 X124.529 Y105.655 E.00695
M204 S1000
G1 X124.236 Y105.91 F10800
M204 S800
;TYPE:External perimeter
G1 F1200
G1 X124.09 Y105.764 E.00649
G1 X123.971 Y105.594 E.0065
G1 X123.883 Y105.406 E.0065
G1 X123.83 Y105.206 E.00649
G1 X123.812 Y105 E.0065
G1 X123.83 Y104.794 E.0065
G1 X123.883 Y104.594 E.0065
G1 X123.971 Y104.406 E.0065
G1 X124.09 Y104.236 E.0065
G1 X124.236 Y104.09 E.0065
G1 X124.406 Y103.971 E.0065
G1 X124.594 Y103.883 E.0065
G1 X124.794 Y103.83 E.0065
G1 X125 Y103.812 E.0065
G1 X125.206 Y103.83 E.0065
G1 X125.406 Y103.883 E.0065
G1 X125.594 Y103.971 E.0065
G1 X125.764 Y104.09 E.0065
G1 X125.91 Y104.236 E.0065
G1 X126.029 Y104.406 E.0065
G1 X126.117 Y104.594 E.0065
G1 X126.17 Y104.794 E.00649
G1 X126.188 Y105 E.0065
G1 X126.17 Y105.206 E.0065
G1 X126.117 Y105.406 E.0065
G1 X126.029 Y105.594 E.0065
G1 X125.91 Y105.764 E.0065
G1 X125.764 Y105.91 E.00649
G1 X125.594 Y106.029 E.0065
G1 X125.406 Y106.117 E.0065
G1 X125.206 Y106.17 E.00649
G1 X125 Y106.188 E.0065
G1 X124.794 Y106.17 E.0065
G1 X124.594 Y106.117 E.0065
G1 X124.406 Y106.029 E.0065
G1 X124.285 Y105.945 E.00461
M204 S1000
G1 X124.272 Y105.706 F10800
;WIPE_START
G1 F8640
G1 X124.09 Y105.764 E-.06152
G1 X123.971 Y105.594 E-.04784
G1 X123.883 Y105.406 E-.04783
G1 X123.83 Y105.206 E-.04783
G1 X123.812 Y105 E-.04784
G1 X123.83 Y104.794 E-.04783
G1 X123.883 Y104.594 E-.04784
G1 X123.971 Y104.406 E-.04783
G1 X124.09 Y104.236 E-.04783
G1 X124.236 Y104.09 E-.04784
G1 X124.406 Y103.971 E-.04783
G1 X124.594 Y103.883 E-.04783
G1 X124.794 Y103.83 E-.04783
G1 X125 Y103.812 E-.04783
G1 X125.206 Y103.83 E-.04783
G1 X125.406 Y103.883 E-.04783
G1 X125.594 Y103.971 E-.04783
G1 X125.764 Y104.09 E-.04783
G1 X125.91 Y104.236 E-.04783
G1 X125.979 Y104.334 E-.02748
;WIPE_END
G1 E-.05 F2100
G1 Z.4 F720
G1 X125.684 Y104.998 F10800
G1 Z.2 F720
G1 E1 F2100
M204 S800
;TYPE:Solid infill
;WIDTH:0.495415
G1 F1200
G1 X125.218 Y104.532 E.02481
G1 X125.091 Y104.485 E.00511
M73 Q11 S5
G1 X124.897 Y104.485 E.00731
G1 X124.832 Y104.502 E.00251
G1 X124.664 Y104.6 E.00731
G1 X125.387 Y105.34 E.03893
G1 X125.273 Y105.448 E.00591
G1 X125.091 Y105.515 E.00731
G1 X124.922 Y105.515 E.00636
G1 X124.312 Y104.905 E.03244
M204 S1000
; stop printing object caster.STL id:0 copy 0
;LAYER_CHANGE
;Z:0.4
;HEIGHT:0.2
;BEFORE_LAYER_CHANGE
G92 E0.0
;0.4


;WIPE_START
G1 F8640
G1 X124.922 Y105.515 E-.1991
G1 X125.091 Y105.515 E-.03905
G1 X125.273 Y105.448 E-.04484
G1 X125.387 Y105.34 E-.03624
G1 X124.664 Y104.6 E-.23892
G1 X124.832 Y104.502 E-.04484
G1 X124.897 Y104.485 E-.01541
G1 X125.091 Y104.485 E-.04483
G1 X125.218 Y104.532 E-.03133
G1 X125.684 Y104.998 E-.15224
;WIPE_END
G1 E-.1532 F2100
G1 Z.4 F720
;AFTER_LAYER_CHANGE
;0.4
M104 S250 ; set temperature
M140 S90 ; set bed temperature
G1 Z.6
G1 X135.312 Y104.998 F10800
G1 Z.4 F720
G1 E1 F2100
;TYPE:Skirt/Brim
;WIDTH:0.42
G1 F900
G1 X135.312 Y112.558 E.23703
G1 X134.919 Y113.975 E.04612
G1 X133.853 Y114.988 E.04612
G1 X132.558 Y115.312 E.04186
G1 X117.442 Y115.312 E.47393
M73 Q12 S5
G1 X116.025 Y114.919 E.04612
M73 P12 R5
G1 X115.012 Y113.853 E.04612
G1 X114.688 Y112.558 E.04186
G1 X114.688 Y97.442 E.47393
G1 X115.081 Y96.025 E.04612
G1 X116.147 Y95.012 E.04612
G1 X117.442 Y94.688 E.04186
G1 X132.558 Y94.688 E.47393
G1 X133.975 Y95.081 E.04612
G1 X134.988 Y96.147 E.04612
G1 X135.312 Y97.442 E.04186
G1 X135.312 Y104.938 E.23501
G1 X134.935 Y104.938 F10800
M73 P13 R5
M73 Q13 S5
G1 F900
G1 X134.935 Y112.558 E.23891
G1 X134.543 Y113.865 E.04278
G1 X133.497 Y114.741 E.04278
G1 X132.558 Y114.935 E.03008
G1 X117.442 Y114.935 E.47393
G1 X116.135 Y114.543 E.04278
G1 X115.259 Y113.497 E.04278
G1 X115.065 Y112.558 E.03008
G1 X115.065 Y97.442 E.47393
G1 X115.457 Y96.135 E.04278
G1 X116.503 Y95.259 E.04278
G1 X117.442 Y95.065 E.03008
G1 X132.558 Y95.065 E.47393
G1 X133.865 Y95.457 E.04278
M73 P14 R5
M73 Q14 S5
G1 X134.741 Y96.503 E.04278
G1 X134.935 Y97.442 E.03008
G1 X134.935 Y104.878 E.23313
; printing object caster.STL id:0 copy 0
;WIPE_START
G1 F8640
G1 X134.935 Y108.992 E-.95
;WIPE_END
G1 E-.05 F2100
G1 Z.6 F720
G1 X125.965 Y105.005 F10800
G1 Z.4 F720
G1 E1 F2100
M204 S800
;TYPE:Perimeter
;WIDTH:0.45
G1 F900
G1 X125.951 Y105.168 E.00553
G1 X125.907 Y105.33 E.0057
G1 X125.836 Y105.483 E.0057
G1 X125.74 Y105.621 E.0057
G1 X125.621 Y105.74 E.0057
G1 X125.483 Y105.836 E.0057
G1 X125.33 Y105.907 E.0057
G1 X125.168 Y105.951 E.0057
G1 X125.023 Y105.964 E.00492
G1 X124.827 Y105.95 E.00663
G1 X124.67 Y105.907 E.00553
G1 X124.517 Y105.836 E.0057
G1 X124.379 Y105.74 E.0057
G1 X124.26 Y105.621 E.0057
G1 X124.164 Y105.483 E.0057
G1 X124.093 Y105.33 E.0057
G1 X124.049 Y105.168 E.0057
G1 X124.036 Y105.023 E.00492
G1 X124.05 Y104.827 E.00663
G1 X124.093 Y104.67 E.00553
G1 X124.164 Y104.517 E.0057
G1 X124.26 Y104.379 E.0057
G1 X124.379 Y104.26 E.0057
G1 X124.517 Y104.164 E.0057
G1 X124.67 Y104.093 E.0057
G1 X124.832 Y104.049 E.0057
G1 X125 Y104.034 E.0057
G1 X125.145 Y104.047 E.00492
G1 X125.335 Y104.095 E.00663
G1 X125.483 Y104.164 E.00553
G1 X125.621 Y104.26 E.0057
G1 X125.74 Y104.379 E.0057
G1 X125.836 Y104.517 E.0057
G1 X125.907 Y104.67 E.0057
G1 X125.959 Y104.945 E.00949
M204 S1000
G1 X126.374 Y105.002 F10800
M204 S800
;TYPE:External perimeter
G1 F900
G1 X126.353 Y105.239 E.00805
G1 X126.291 Y105.47 E.00811
G1 X126.19 Y105.687 E.00811
G1 X126.053 Y105.883 E.00811
G1 X125.883 Y106.053 E.00811
G1 X125.687 Y106.19 E.00811
G1 X125.47 Y106.291 E.00811
G1 X125.239 Y106.353 E.00811
G1 X125.026 Y106.372 E.00722
G1 X124.76 Y106.353 E.00904
G1 X124.53 Y106.291 E.00805
G1 X124.313 Y106.19 E.00811
G1 X124.117 Y106.053 E.00811
G1 X123.947 Y105.883 E.00811
G1 X123.81 Y105.687 E.00811
G1 X123.709 Y105.47 E.00811
G1 X123.647 Y105.239 E.00811
G1 X123.628 Y105.026 E.00722
G1 X123.647 Y104.76 E.00904
G1 X123.709 Y104.53 E.00805
G1 X123.81 Y104.313 E.00811
G1 X123.947 Y104.117 E.00811
G1 X124.117 Y103.947 E.00811
G1 X124.313 Y103.81 E.00811
G1 X124.53 Y103.709 E.00811
G1 X124.761 Y103.647 E.00811
G1 X125 Y103.626 E.00811
G1 X125.213 Y103.644 E.00722
G1 X125.472 Y103.709 E.00904
G1 X125.687 Y103.81 E.00805
G1 X125.883 Y103.947 E.00811
G1 X126.053 Y104.117 E.00811
G1 X126.19 Y104.313 E.00811
G1 X126.291 Y104.53 E.00811
G1 X126.347 Y104.736 E.00722
G1 X126.368 Y104.942 E.00701
M204 S1000
G1 X126.168 Y105.121 F10800
G1 X125.836 Y105.076
;TYPE:Solid infill
;WIDTH:0.472951
G1 F900
G1 X125.369 Y105.543 E.02362
G1 X125.225 Y105.619 E.00582
G1 X125.02 Y105.657 E.00746
G1 X124.878 Y105.647 E.00509
G1 X124.713 Y105.591 E.00624
G1 X125.591 Y104.713 E.04437
G1 X125.505 Y104.576 E.00578
G1 X125.424 Y104.495 E.00411
G1 X125.287 Y104.409 E.00578
G1 X124.409 Y105.287 E.04437
G1 X124.351 Y105.114 E.0065
G1 X124.343 Y105.02 E.00338
G1 X124.381 Y104.775 E.00889
G1 X124.457 Y104.63 E.00584
G1 X124.924 Y104.164 E.02359
; stop printing object caster.STL id:0 copy 0
;LAYER_CHANGE
;Z:0.436364
;HEIGHT:0.0363636
;BEFORE_LAYER_CHANGE
G92 E0.0
;0.436364


;WIPE_START
G1 F8640
G1 X124.457 Y104.63 E-.15235
G1 X124.381 Y104.775 E-.03773
G1 X124.343 Y105.02 E-.05742
G1 X124.351 Y105.114 E-.02181
G1 X124.409 Y105.287 E-.04197
G1 X125.287 Y104.409 E-.28649
G1 X125.424 Y104.495 E-.03734
G1 X125.505 Y104.576 E-.02653
G1 X125.591 Y104.713 E-.03732
